X:1
T:Title
%%score { 1 | 2 }
L:1/8
M:6/8
K:G
V:1 treble nm="Grand Piano"
V:2 bass 
V:1
 z3 z2[Q:1/4=87] [B,D] | [DB]>[DB][DB] [DB][CA][B,G] | [EA][EG][CE] [EA]2 [EG] | FFF [Fc][FB][FA] | %4
 [GB]3- [GB]2 [B,D] | [DB]>[DB][DB] [DB][CA][B,G] | [EA][EG][CE] [EA]2 [EG] | %7
 [DF][DF][FA] [Fc][FB][FA] |[M:5/8] G-G- G3 |[M:1/8] d |[M:3/4] [Ge]>[Ge] [Ge]d BB | %11
 [FA][EG] [FA] [GB]2 [Gd] | [Ge]>[Ge] [Ge]d BG | [FA]4- [FA][Gd] | [Ge]>[Ge] [Ge]d BB | %15
 [EA][EG] [CE] [EA]2 [EG] | [DF][DF] [FA][Fc] [FB][FA] |[M:5/8] G-G- G3 |] %18
V:2
 z3 z2 [G,,G,] | [G,,G,]>[G,,G,][G,,G,] [G,,G,][G,,G,][G,,G,] | [C,G,][C,G,][C,G,] [C,C]2 [C,C] | %3
 [D,CD][D,CD][D,CD] [D,A,][D,D][D,D] | [G,D]3- [G,D]2 [G,,G,] | %5
 [G,,G,]>[G,,G,][G,,G,] [G,,G,][G,,G,][G,,G,] | [C,G,][C,G,][C,G,] [C,C]2 [C,C] | %7
 [D,C][D,C][D,C] [D,A,][D,D][D,C] |[M:5/8] [G,B,]-[G,B,]- [G,B,]3 |[M:1/8] [G,B,G] | %10
[M:3/4] [C,C]>[C,C] [C,C][K:treble][G,B,G] [G,DG][G,DG] | [D,D][D,D] [D,D] [G,D]2 [G,B,] | %12
 [C,C]>[C,C] [C,C][K:treble][G,B,G] [G,DG][K:bass][G,B,] | [D,D]4- [D,D][G,B,] | %14
 [C,C]>[C,C] [C,C][K:treble][G,B,G] [G,DG][G,DG] | [C,C][C,C] [C,G,] [C,C]2 [C,C] | %16
 [D,C][D,C] [D,C][D,A,] [D,D][D,C] |[M:5/8] [G,B,]-[G,B,]- [G,B,]3 |] %18

